!!!COM: Bach, Johann Sebastian
!!!CDT: 1685/3//-1750/7/28/
!!!OTL@@DE: O Haupt voll Blut und Wunden
!!!AGN: 4-Part Chorale
!!!SCT: BH 098
!!!SCT: BWV 244
!!!YEC: Copyright 1994, David Huron
!!!YEC: Changes/Additions 2001 by Craig Stuart Sapp
!!!YEN: United States of America
!!!SMA: 371 Bach Chorales, edited by Ludwig Erk, C.F. Peters
!!!PDT: 1850, 1865
!!!ONB: Harmony and Root analysis done manually by Craig Sapp
**kern	**kern	**kern	**kern	**root	**harm
!bass	!tenor	!alto	!soprno	!	!
*Iorgan	*Iorgan	*Iorgan	*Iorgan	*Iorgan	*
*clefF4	*clefF4	*clefG2	*clefG2	*	*
*M4/4	*M4/4	*M4/4	*M4/4	*M4/4	*M4/4
*met(C)	*met(C)	*met(C)	*met(C)	*met(C)	*met(C)
*MM60	*MM60	*MM60	*MM60	*MM60	*MM60
*k[f#c#]	*k[f#c#]	*k[f#c#]	*k[f#c#]	*k[f#c#]	*k[f#c#]
*D:	*D:	*D:	*D:	*D:	*D:
*>[A,A,B]	*>[A,A,B]	*>[A,A,B]	*>[A,A,B]	*>[A,A,B]	*>[A,A,B]
*>A	*>A	*>A	*>A	*>A	*>A
4D	4A	4d	4f#	4DD	I
=1	=1	=1	=1	=1	=1
4G	4G	4d	4b	4GG	IV
4F#	4A	4d	4a	4DD	Ib
8BB	8B	8d	4g	8GG	IVb
8C#	8A	8e	.	8AA	V7b
4D	4A	8e	4f#	4DD	I
.	.	8d	.	.	.
=2	=2	=2	=2	=2	=2
4GG	4B	4d	2e	4EE	ii7b
4AA	4A	4c#	.	4AA	V
4D;	4A;	4d;	4f#;	4DD;	I;
4C#	4A#	4e	4cc#	4AA#	viib/vi
=3	=3	=3	=3	=3	=3
8BB	4F#	8d	4dd	4BB	vi
8C#	.	8e	.	.	.
8D	4B	4f#	4dd	4BB	vib
8E	.	.	.	.	.
4F#	4B	4f#	8cc#	4FF#	V/vi
.	.	.	8b	.	.
4FF#	4A#	8f#	4cc#	4FF#	V/vi
.	.	8e	.	.	.
=4	=4	=4	=4	=4	=4
2.BB;	2.B;	2.d;	2.b;	2.BB;	vi;
=:|!	=:|!	=:|!	=:|!	=:|!	=:|!
*>B	*>B	*>B	*>B	*>B	*>B
4B	4f#	8b	4dd	4BB	vi
.	.	8an	.	.	.
=5	=5	=5	=5	=5	=5
4E	8e	4g	8cc#	4CC#	viib
.	8d	.	8b	.	.
4F#	4c#	8f#	4a	4FF#	iii
.	.	8e	.	.	.
8G	8B	4d	4b	4GG	IV
8F#	8A	.	.	.	.
4E	8G	4g	4cc#	4CC#	viib
.	8A	.	.	.	.
!!linebreak: 2
=6	=6	=6	=6	=6	=6
2D	4B	4g	2dd	4GG	IVc
.	8A	8f#	.	4DD	I
.	8G	8e	.	.	.
4D;	4A;	4f#;	4dd;	4DD;	I;
4D	4d	4f#	4a	4DD	I
=7	=7	=7	=7	=7	=7
4G	4d	4g	4b	4GG	IV
4D	8d	4f#	4a	4DD	I
.	8c#	.	.	.	.
8E	4B	4f#	4g	4EE	ii
8F#	.	.	.	.	.
8G	4B	4e	4g	4EE	iib
8A	.	.	.	.	.
=8	=8	=8	=8	=8	=8
2.B;	2.B;	2.d#;	2.f#;	2.BB;	VI;
4G#	4B	4e	4ddn	4EE	V7b/V
=9	=9	=9	=9	=9	=9
4A	4A	4e	8cc#	4AA	V
.	.	.	8dd	.	.
4C#	8A	4e	4ee	4AA	Vb
.	8G#	.	.	.	.
8F#	8A	4f#	4dd	4DD	Ib
8G#	8B	.	.	.	.
4A	8c#	4e	4cc#	4AA	V
.	8A	.	.	.	.
=10	=10	=10	=10	=10	=10
4D	8F#	4f#	2b	4BB	vib
.	8B	.	.	.	.
4E	4G#	4e	.	4EE	V/V
4AA;	4A;	4e;	4cc#;	4AA;	V;
8D	4A	4d	4f#	4DD	I
8C#	.	.	.	.	.
=11	=11	=11	=11	=11	=11
4BB	4G	8d	4g	4GG	IVb
.	.	8c#	.	.	.
4AA	4A	4d	4f#	4DD	Ic
4GG	4B	4d	4e	4EE	ii7b
4AA	8E	4c#	4a	4AA	V
.	8A	.	.	.	.
=12	=12	=12	=12	=12	=12
2.D;	2.A;	2.d;	2.f#;	2.DD;	I;
==	==	==	==	==	==
*-	*-	*-	*-	*-	*-
!!chor2scor: -l 2 -s 0.6 -o %b.pmx
